packages/dnb-eufemia/assets/icons/account_in_medium.svg

<svg width="24" height="24" viewBox="0 0 24 24" fill="none" xmlns="http://www.w3.org/2000/svg">
<path d="M14.6222 9.75L15.0708 9.14895C14.9412 9.05225 14.7839 9 14.6222 9V9.75ZM8.62781 9.75V9C8.46613 9 8.30878 9.05225 8.17922 9.14895L8.62781 9.75ZM11.625 23.25V24V23.25ZM8.25 6.75C7.83579 6.75 7.5 7.08579 7.5 7.5C7.5 7.91421 7.83579 8.25 8.25 8.25V6.75ZM15 8.25C15.4142 8.25 15.75 7.91421 15.75 7.5C15.75 7.08579 15.4142 6.75 15 6.75V8.25ZM16.5 0.75L16.9965 1.31217C17.2473 1.09066 17.321 0.729789 17.1772 0.427645C17.0334 0.125501 16.7068 -0.0448082 16.3767 0.0102046L16.5 0.75ZM7.5 2.25L7.3767 1.5102C7.06113 1.5628 6.81366 1.80979 6.76045 2.12526C6.70724 2.44073 6.86 2.75522 7.14086 2.90842L7.5 2.25ZM9 5.25H8.25C8.25 5.66421 8.58579 6 9 6V5.25ZM13.875 5.25V6C14.2892 6 14.625 5.66421 14.625 5.25H13.875ZM6.39213 21.4607C6.03905 21.2442 5.57725 21.3548 5.36068 21.7079C5.14411 22.061 5.25478 22.5228 5.60787 22.7394L6.39213 21.4607ZM7.00025 10.1132C6.69139 10.3892 6.66476 10.8633 6.94076 11.1722C7.21677 11.4811 7.69089 11.5077 7.99975 11.2317L7.00025 10.1132ZM1 15.75C0.585786 15.75 0.25 16.0858 0.25 16.5C0.25 16.9142 0.585786 17.25 1 17.25V15.75ZM5.46967 18.4697C5.17678 18.7626 5.17678 19.2374 5.46967 19.5303C5.76256 19.8232 6.23744 19.8232 6.53033 19.5303L5.46967 18.4697ZM8.5 16.5L9.03033 17.0303C9.32322 16.7374 9.32322 16.2626 9.03033 15.9697L8.5 16.5ZM6.53033 13.4697C6.23744 13.1768 5.76256 13.1768 5.46967 13.4697C5.17678 13.7626 5.17678 14.2374 5.46967 14.5303L6.53033 13.4697ZM14.6222 9H8.62781V10.5H14.6222V9ZM11.625 24C14.6467 24 16.8322 23.4755 18.2627 22.2981C19.7314 21.0894 20.25 19.3268 20.25 17.25H18.75C18.75 19.0907 18.296 20.3281 17.3095 21.14C16.285 21.9832 14.5329 22.5 11.625 22.5V24ZM20.25 17.25C20.25 15.6193 19.5327 14.0352 18.5616 12.6677C17.5849 11.2923 16.3061 10.071 15.0708 9.14895L14.1736 10.3511C15.309 11.1985 16.4692 12.3117 17.3386 13.5362C18.2138 14.7686 18.75 16.0498 18.75 17.25H20.25ZM8.25 8.25H15V6.75H8.25V8.25ZM16.3767 0.0102046L7.3767 1.5102L7.6233 2.9898L16.6233 1.4898L16.3767 0.0102046ZM7.5 2.25C7.14086 2.90842 7.14051 2.90823 7.14016 2.90804C7.14005 2.90798 7.1397 2.90779 7.13948 2.90767C7.13905 2.90743 7.13863 2.9072 7.13824 2.90698C7.13745 2.90655 7.13675 2.90616 7.13613 2.90582C7.1349 2.90513 7.134 2.90462 7.13343 2.9043C7.1323 2.90365 7.13247 2.90374 7.13385 2.90456C7.13663 2.90621 7.14424 2.9108 7.156 2.91844C7.17959 2.93375 7.21941 2.96102 7.27022 3.00105C7.37226 3.08144 7.51536 3.21077 7.66026 3.39518C7.94383 3.75609 8.25 4.34615 8.25 5.25H9.75C9.75 3.97203 9.30617 3.0621 8.83974 2.46845C8.60964 2.1756 8.37774 1.96401 8.19853 1.82281C8.10871 1.75205 8.03135 1.69835 7.97291 1.6604C7.94365 1.6414 7.91903 1.62628 7.89984 1.61488C7.89024 1.60918 7.88198 1.6044 7.87517 1.60053C7.87176 1.59859 7.86872 1.59688 7.86604 1.59539C7.8647 1.59464 7.86346 1.59395 7.86231 1.59332C7.86173 1.593 7.86118 1.5927 7.86065 1.59241C7.86039 1.59226 7.86001 1.59205 7.85988 1.59198C7.85951 1.59178 7.85914 1.59158 7.5 2.25ZM9 6H13.875V4.5H9V6ZM14.625 5.25C14.625 4.42245 15.1436 3.46821 15.7817 2.63939C16.0873 2.2426 16.3945 1.90722 16.6258 1.67093C16.741 1.55322 16.8363 1.46122 16.9016 1.39966C16.9342 1.36891 16.9593 1.34584 16.9755 1.33104C16.9837 1.32365 16.9896 1.31832 16.9931 1.31515C16.9949 1.31357 16.9961 1.31252 16.9966 1.31202C16.9969 1.31177 16.997 1.31165 16.997 1.31168C16.997 1.31169 16.9969 1.31174 16.9969 1.31182C16.9968 1.31186 16.9967 1.31194 16.9967 1.31196C16.9966 1.31206 16.9965 1.31217 16.5 0.75C16.0035 0.187835 16.0034 0.187957 16.0033 0.188088C16.0032 0.188144 16.003 0.188284 16.0029 0.188395C16.0027 0.188618 16.0024 0.188876 16.002 0.18917C16.0014 0.189758 16.0005 0.190489 15.9996 0.191361C15.9976 0.193105 15.995 0.195415 15.9918 0.198282C15.9854 0.204014 15.9766 0.211975 15.9655 0.22209C15.9433 0.242315 15.912 0.271179 15.8728 0.308078C15.7946 0.381824 15.6847 0.487972 15.5539 0.621685C15.293 0.888234 14.944 1.26876 14.5933 1.72425C13.9189 2.59997 13.125 3.89573 13.125 5.25H14.625ZM5.60787 22.7394C7.01986 23.6054 9.00363 24 11.625 24V22.5C9.11419 22.5 7.45813 22.1146 6.39213 21.4607L5.60787 22.7394ZM8.17922 9.14895C7.78566 9.44268 7.38913 9.7657 7.00025 10.1132L7.99975 11.2317C8.35554 10.9138 8.71791 10.6186 9.07641 10.3511L8.17922 9.14895ZM6.53033 19.5303L9.03033 17.0303L7.96967 15.9697L5.46967 18.4697L6.53033 19.5303ZM9.03033 15.9697L6.53033 13.4697L5.46967 14.5303L7.96967 17.0303L9.03033 15.9697ZM1 17.25H8.5V15.75H1V17.25Z" fill="black"/>
<path d="M15.45 14.9099C14.874 14.9099 14.379 15.2159 14.127 15.6839V14.9999H12.957V19.4999H14.271V17.0429C14.271 16.3859 14.658 16.0439 15.423 16.0439C15.612 16.0439 15.783 16.0619 15.918 16.0889V14.9639C15.837 14.9369 15.657 14.9099 15.45 14.9099Z" fill="black"/>
<path d="M11.2214 16.1188L12.239 14.9999H10.799C11.0382 15.3998 11.1802 15.9125 11.2214 16.1188Z" fill="black"/>
<path d="M10.799 19.4999H12.374L10.973 17.6902C10.961 17.7444 10.7933 18.0175 10.2185 18.6764L10.799 19.4999Z" fill="black"/>
</svg>

<svg width="24" height="24" viewBox="0 0 24 24" fill="none" xmlns="http://www.w3.org/2000/svg"><path d="m14.622 9.75.449-.601A.75.75 0 0 0 14.622 9v.75Zm-5.994 0V9a.75.75 0 0 0-.449.149l.449.601Zm2.997 13.5V24v-.75ZM8.25 6.75a.75.75 0 0 0 0 1.5v-1.5ZM15 8.25a.75.75 0 0 0 0-1.5v1.5Zm1.5-7.5.497.562a.75.75 0 0 0-.62-1.302l.123.74Zm-9 1.5-.123-.74a.75.75 0 0 0-.236 1.398L7.5 2.25Zm1.5 3h-.75c0 .414.336.75.75.75v-.75Zm4.875 0V6a.75.75 0 0 0 .75-.75h-.75ZM6.392 21.46a.75.75 0 0 0-.784 1.28l.784-1.28ZM7 10.114a.75.75 0 0 0 1 1.119l-1-1.119ZM1 15.75a.75.75 0 0 0 0 1.5v-1.5Zm4.47 2.72a.75.75 0 1 0 1.06 1.06l-1.06-1.06ZM8.5 16.5l.53.53a.75.75 0 0 0 0-1.06l-.53.53Zm-1.97-3.03a.75.75 0 0 0-1.06 1.06l1.06-1.06ZM14.622 9H8.628v1.5h5.994V9Zm-2.997 15c3.022 0 5.207-.524 6.638-1.702 1.468-1.209 1.987-2.971 1.987-5.048h-1.5c0 1.84-.454 3.078-1.44 3.89-1.025.843-2.777 1.36-5.685 1.36V24Zm8.625-6.75c0-1.63-.717-3.215-1.688-4.582-.977-1.376-2.256-2.597-3.491-3.519l-.897 1.202c1.135.847 2.295 1.96 3.165 3.185.875 1.233 1.411 2.514 1.411 3.714h1.5Zm-12-9H15v-1.5H8.25v1.5ZM16.377.01l-9 1.5.246 1.48 9-1.5-.246-1.48ZM7.5 2.25l-.36.658-.002-.001-.002-.001-.003-.002A1.564 1.564 0 0 1 7.27 3c.103.081.246.21.391.395.284.361.59.951.59 1.855h1.5c0-1.278-.444-2.188-.91-2.782a3.86 3.86 0 0 0-.641-.645 3.062 3.062 0 0 0-.337-.23h-.001l-.001-.001-.36.658ZM9 6h4.875V4.5H9V6Zm5.625-.75c0-.828.519-1.782 1.157-2.61a11.026 11.026 0 0 1 1.211-1.325l.004-.003L16.5.75a171.156 171.156 0 0 0-.498-.56H16a.82.82 0 0 0-.034.031l-.093.086a12.513 12.513 0 0 0-1.28 1.416c-.674.876-1.468 2.172-1.468 3.526h1.5ZM5.608 22.74C7.02 23.604 9.004 24 11.624 24v-1.5c-2.51 0-4.167-.385-5.233-1.04l-.784 1.28ZM8.179 9.148c-.393.294-.79.617-1.179.964l1 1.119a15.81 15.81 0 0 1 1.076-.88L8.18 9.148ZM6.53 19.53l2.5-2.5-1.06-1.06-2.5 2.5 1.06 1.06Zm2.5-3.56-2.5-2.5-1.06 1.06 2.5 2.5 1.06-1.06ZM1 17.25h7.5v-1.5H1v1.5Zm14.45-2.34c-.576 0-1.071.306-1.323.774V15h-1.17v4.5h1.314v-2.457c0-.657.387-1 1.152-1 .189 0 .36.019.495.046v-1.125a1.733 1.733 0 0 0-.468-.054Zm-4.229 1.209 1.018-1.12h-1.44c.24.4.381.913.422 1.12Zm-.422 3.381h1.575l-1.401-1.81c-.012.054-.18.327-.755.986l.581.824Z" fill="#000"/></svg>
